X:1
T:Karaman, 87.87.77.87
T:Karaman, 87.87.77.87
T:Bentley DeForest Ackley, 1915
T:Public Domain Courtesy of the Cyber Hymnal™
C:Bentley DeForest Ackley, 1915
Z:Public Domain
Z:Courtesy of the Cyber Hymnal™
%%score 1 2
L:1/8
Q:1/4=108
M:4/4
K:Db
V:1 treble 
V:2 bass 
V:1
 [DF]>[EG] | [FA]2 [FA]2 [FA]2 [FA]2 | [GA]2 [GA]4 [GB]>[Gc] | [Fd]3 [Fe] [Fd]2 [Ac]2 | %4
 [GB]6 [G=A]>[GB] | [Gc]3 [Gc] [GB]2 [GA]2 | [Fd]2 [Fd]4 [Fd]>[Ad] | [=Ge]3 [GB] [Gc]2 [Gd]2 | %8
 [Ge]6 z2 | [Fd]3 [Fc] [Fe]2 [Fd]2 | [Gd]2 [Gc]2 [Gc]4 | [Gc]3 [GB] [Gd]2 [Gc]2 | %12
 [FB]2 [FA]2 [FA]3 [GA] | [Fd]3 [Fd] [Fd]2 [Fd]2 | [Gd]3 [Gd] [=Gd]2 [Gd]>[Ge] | %15
 [Ff]3 [FA] [GA]2 [Ge]2 | [Fd]6 |] %17
V:2
 [D,A,]>[D,A,] | [D,D]2 [D,D]2 [=D,=B,]2 [D,B,]2 | [E,C]2 [A,C]4 [A,E]>[A,E] | %3
 [D,D]3 [D,D] [D,A,]2 [F,D]2 | [G,D]6 [E,E]>[E,E] | [A,E]3 [A,E] [A,D]2 [A,C]2 | %6
 [D,A,]2 [D,A,]4 [D,A,]>[F,A,] | [E,B,]3 [E,E] [E,E]2 [E,B,]2 | [A,C]6 z2 | %9
 [D,A,]3 [D,A,] [D,A,]2 [D,A,]2 | [E,A,]2 [A,E]2 [A,E]4 | [A,E]3 [A,E] [A,E]2 [A,E]2 | %12
 [D,D]2 [D,D]2 [D,D]3 [A,C] | [D,D]3 [D,D] [_CD]2 [CD]2 | [B,D]3 [B,D] [=A,D]2 [A,D]>[A,D] | %15
 [A,D]3 [A,D] [A,C]2 [A,C]2 | [D,A,D]6 |] %17

